X: 37
T:Cuckoo's Nest. JaW.037
T:Come Ashore Jolly...aka. JaW.037
T:Jacky Tar,aka. JaW.037
M:C|
L:1/8
Q:1/4=180
C:Come Ashore,Jolly Jack Tar etc
S:James Winder Ms, Lancashire, 1835-41
R:Hornpipe
O:England
A:Wyresdale,Lancashire
H:1/8
Z:vmp.Chris Partington, Aug 2004
K:F
AG|FEFD f2ed|cAGF B2AG|FEFD CDFC|c2G2 G2AG|!
FEFD f2ed|cAGF B2AG|FEFD CBAG|F2D2 D2:|!
|:A2|d2d2 defe|d2A2 A2AB|c2c2 cded|c2G2 G2fe|!
dcde f2ed|cAGF B2AG|FEFD CBAG|F2D2 D2:|!
|:FG|AFDF AFDF|AGFE D2EF|GECE GECE|GFED C2FG|!
AFDF AFDF|AGFE f2ed|cAGF GBAG|F2D2 D2:|]
